icons/Business/mail-unread-line.svg

<svg viewBox="0 0 24 24" xmlns="http://www.w3.org/2000/svg"><path d="M16.1 3C16.0344 3.32311 16 3.65753 16 4C16 4.34247 16.0344 4.67689 16.1 5H4.51146L12.0619 11.662L17.1098 7.14141C17.5363 7.66888 18.0679 8.10787 18.6728 8.42652L12.0718 14.338L4 7.21594V19H20V8.89998C20.3231 8.96557 20.6575 9 21 9C21.3425 9 21.6769 8.96557 22 8.89998V20C22 20.5523 21.5523 21 21 21H3C2.44772 21 2 20.5523 2 20V4C2 3.44772 2.44772 3 3 3H16.1ZM21 1C22.6569 1 24 2.34315 24 4C24 5.65685 22.6569 7 21 7C19.3431 7 18 5.65685 18 4C18 2.34315 19.3431 1 21 1Z"/></svg>

<svg xmlns="http://www.w3.org/2000/svg" viewBox="0 0 24 24">
    <g>
        <path fill="none" d="M0 0h24v24H0z"/>
        <path d="M16.1 3a5.023 5.023 0 0 0 0 2H4.511l7.55 6.662 5.049-4.52c.426.527.958.966 1.563 1.285l-6.601 5.911L4 7.216V19h16V8.9a5.023 5.023 0 0 0 2 0V20a1 1 0 0 1-1 1H3a1 1 0 0 1-1-1V4a1 1 0 0 1 1-1h13.1zM21 7a3 3 0 1 1 0-6 3 3 0 0 1 0 6z"/>
    </g>
</svg>
